X:1
%% Transcribed from "Bud Powell/The complete Blue Note recordings"
T:Reets and I
T:(All Gods chillun got rhythm)
M:4/4
L:1/8
C:Bud Powell
Q:1/4=190
%%staves (chords melody)
K:F
%%text (medium/up)
%%vskip 20
P:A
V:chords
"F6"x4 "Dm7"x4 | "Gm7"x4 "C7"x4 | "Am7"x4 "D7"x4 | "Gm7"x4 "C7"x4 |
"F6"x4 "Dm7"x4 | "Gm7"x4 "C7"x4 | "Am7"x4 x4 | "D7"x4 x4 ||
V:melody
A3c z3A | BABA BdB=B | c3f z3f | gfgf gfed |
fcz2 z3_e | dBGF E_dB=B | c2z2 zBAG | ^FA_E^C D2z2 ||
P:B
V:chords
"Bm7b5"x4 "E7"x4 | "Am7"x4 "D7"x4 | "Gm7"x4 "C7"x4 | "F6"x4 x4 |
"Em7b5"x4 "A7"x4 | "Dm7"x4 "G7"x4 | "C7"x4 x4 | x4 x4 ||
V:melody
fefe ^A=Bz_e- | e2d^G- G2Ac | zBcB ^FGzc- | c4z3A |
B/^c/B/A/ B/^c/B/A/ ^DE zG- | G2F^C- C4 | z^D (3EFA (3B_dB AB | A_Gz2 z3^G ||
P:A
V:chords
"F6"x4 "Dm7"x4 | "Gm7"x4 "C7"x4 | "Am7"x4 "D7"x4 | "Gm7"x4 "C7"x4 |
"F6"x4 "Dm7"x4 | "Gm7"x4 "C7"x4 | "Am7"x4 x4 | "D7"x4 x4 ||
V:melody
A3c z3A | BABA BdB=B | c3f z3f | gfgf gfed |
fcz2 z3_e | dBGF E_dB=B | c2z2 zBAG | ^FA_E^C D2z2 ||
P:B
V:chords
"Bm7b5"x4 "E7"x4 | "Am7"x4 "D7"x4 | "Gm7"x4 "C7"x4 | "Am7"x4 "D7"x4 |
"Gm7"x4 x4 | "C7"x4 x4 | "F6"x4 x4 | x4 x4 |]
V:melody
fefe ^A=Bz_e- | e2d^G- G2Ac | zBcB ^FGzc | z8 |
zFAB =Bcfc | =B/c/B/F/ _B2-B2 A/B/A/F/ | B2AF BAF_E | z8   |]
